modules/hawcons-stroke/icons/icon-76-document-unlocked.svg

<?xml version="1.0" encoding="UTF-8" standalone="no"?>
<svg width="32px" height="32px" viewBox="0 0 32 32" version="1.1" xmlns="http://www.w3.org/2000/svg" xmlns:xlink="http://www.w3.org/1999/xlink" xmlns:sketch="http://www.bohemiancoding.com/sketch/ns">
    <!-- Generator: Sketch 3.0.3 (7891) - http://www.bohemiancoding.com/sketch -->
    <title>icon 76 document unlocked</title>
    <desc>Created with Sketch.</desc>
    <defs></defs>
    <g id="Page-1" stroke="none" stroke-width="1" fill="none" fill-rule="evenodd" sketch:type="MSPage">
        <g id="icon-76-document-unlocked" sketch:type="MSArtboardGroup" fill="#929292">
            <path d="M24,18.3379329 L24,9 L24,9 L18,2 L7.00276013,2 C5.89666625,2 5,2.89833832 5,4.00732994 L5,26.9926701 C5,28.1012878 5.89092539,29 6.99742191,29 L18,29 L18,29.9970707 C18,30.5509732 18.4463114,31 18.9975446,31 L26.0024554,31 C26.553384,31 27,30.5568086 27,30.0013761 L27,26.0059191 L27,24.9977409 C27,24.4467038 26.5530501,24 25.9975592,24 L24.5,24 L20,24 L20,21.4976267 C20,20.1276884 21.1192881,19 22.5,19 C23.8903379,19 25,20.1182256 25,21.4976267 L25,22 L26,22 L26,21.5031554 C26,20.1063725 25.1812117,18.9005209 24,18.3379329 L24,18.3379329 L24,18.3379329 Z M18,28 L6.9999602,28 C6.45470893,28 6,27.5543187 6,27.004543 L6,3.99545703 C6,3.45526288 6.44573523,3 6.9955775,3 L17,3 L17,7.99408095 C17,9.11344516 17.8944962,10 18.9979131,10 L23,10 L23,18.0356001 C22.8366558,18.0121396 22.6697139,18 22.5,18 C20.5670034,18 19,19.5687904 19,21.5031554 L19,24 C18.4477153,24 18,24.4378814 18,25.0029293 L18,28 L18,28 L18,28 Z M18,3.5 L18,7.99121523 C18,8.54835167 18.4506511,9 18.9967388,9 L22.6999512,9 L18,3.5 L18,3.5 Z M19.5034227,25 C19.22539,25 19,25.2148438 19,25.4976988 L19,29.5023012 C19,29.7771727 19.2329025,30 19.5034227,30 L25.4965773,30 C25.77461,30 26,29.7851562 26,29.5023012 L26,25.4976988 C26,25.2228273 25.7670975,25 25.4965773,25 L19.5034227,25 L19.5034227,25 Z" id="document-unlocked" sketch:type="MSShapeGroup"></path>
        </g>
    </g>
</svg>

<svg width="32" height="32" xmlns="http://www.w3.org/2000/svg"><path d="M24 18.338V9l-6-7H7.003A2.005 2.005 0 0 0 5 4.007v22.986A2 2 0 0 0 6.997 29H18v.997A1 1 0 0 0 18.998 31h7.004c.551 0 .998-.443.998-.999v-5.003A.999.999 0 0 0 25.998 24H20v-2.502C20 20.128 21.12 19 22.5 19c1.39 0 2.5 1.118 2.5 2.498V22h1v-.497a3.506 3.506 0 0 0-2-3.165zM18 28H7c-.545 0-1-.446-1-.995V3.995c0-.54.446-.995.996-.995H17v4.994c0 1.12.894 2.006 1.998 2.006H23v8.036a3.502 3.502 0 0 0-4 3.468V24c-.552 0-1 .438-1 1.003V28zm0-24.5v4.491c0 .557.45 1.009.997 1.009H22.7L18 3.5zM19.503 25a.496.496 0 0 0-.503.498v4.004c0 .275.233.498.503.498h5.994a.496.496 0 0 0 .503-.498v-4.004a.505.505 0 0 0-.503-.498h-5.994z" fill="#929292" fill-rule="evenodd"/></svg>
